X:150
T:Reel 150
M:4/4
K:Dmaj
L:1/8
FE|D2FD ADFD|EFED A2d2|B>EFD EDB,D|EFEF E2FE|DCDE FEFA|BddB A2Bd|dedB ABde|fdef d2|de|faaf gbbg|afef g2de|fedf abaf|e2ef e2A2|defg a2af|bagb a2af|gfeg f2ed|fgfe d2|
